; HEADER_BLOCK_START
; generated by OrcaSlicer 2.3.1 on 2026-02-14 at 13:39:13
; total layer number: 146
; filament_density: 1.24
; filament_diameter: 1.75
; max_z_height: 17.70
; HEADER_BLOCK_END

; THUMBNAIL_BLOCK_START

;
; THUMBNAIL_BLOCK_END

; external perimeters extrusion width = 0.42mm
; perimeters extrusion width = 0.45mm
; infill extrusion width = 0.45mm
; solid infill extrusion width = 0.42mm
; top infill extrusion width = 0.42mm
; first layer extrusion width = 0.50mm

; EXECUTABLE_BLOCK_START
M73 P0 R12
M106 S0
M106 P2 S0
;TYPE:Custom
M190 S55
M104 S220
G90
M83
G1 Z5 F6000
G1 E-0.2 F800
G1 X110 Y-110 F6000
G1 E2 F800
G1 Y-110 X55 Z0.25 F4800
G1 X-55 E8 F2400
G1 Y-109.6 F2400
G1 X55 E5 F2400
G1 Y-110 X55 Z0.45 F4800
M73 P1 R12
G1 X-55 E8 F2400
G1 Y-109.6 F2400
G1 X55 E5 F2400
G92 E0
G90
G21
M83 ; use relative distances for extrusion
; filament start gcode
;right_extruder_material: PLA
SET_PRESSURE_ADVANCE ADVANCE=0.025; Override pressure advance value
M106 S0
M106 P2 S0
;LAYER_CHANGE
;Z:0.3
;HEIGHT:0.3
;BEFORE_LAYER_CHANGE
;0.3
G1 E-.8 F2100
;AFTER_LAYER_CHANGE
;0.3
;_SET_FAN_SPEED_CHANGING_LAYER
SET_VELOCITY_LIMIT ACCEL=500
G1 X-1.986 Y2.209 F30000
G1 Z.7
M73 P2 R11
G1 Z.3
G1 E.8 F2100
;TYPE:Inner wall
;WIDTH:0.5
G1 F1200
G1 X-2.248 Y1.93 E.02037
G1 X-2.412 Y1.72 E.01422
G1 X-2.674 Y1.274 E.02752
G1 X-2.778 Y1.029 E.01417
G1 X-2.915 Y.531 E.02752
G1 X-2.951 Y.266 E.01421
G1 X-2.963 Y-.001 E.01426
G1 X-2.917 Y-.515 E.02748
G1 X-2.859 Y-.776 E.01419
G1 X-2.674 Y-1.276 E.0284
G1 X-2.412 Y-1.72 E.02747
G1 X-2.248 Y-1.93 E.0142
G1 X-1.986 Y-2.209 E.02036
G1 X-1.986 Y2.169 E.23308
G1 X-1.55 Y3.032 F30000
G1 F1200
G1 X-1.895 Y2.821 E.02153
G1 X-2.141 Y2.64 E.01627
G1 X-2.369 Y2.437 E.01627
G1 X-2.578 Y2.214 E.01627
G1 X-2.767 Y1.973 E.01628
G1 X-2.924 Y1.732 E.01532
G1 X-3.068 Y1.462 E.01632
G1 X-3.187 Y1.181 E.01626
G1 X-3.28 Y.889 E.01632
G1 X-3.344 Y.608 E.01532
G1 X-3.385 Y.305 E.01627
G1 X-3.399 Y-.001 E.01632
G1 X-3.386 Y-.288 E.01532
G1 X-3.347 Y-.591 E.01628
G1 X-3.28 Y-.89 E.01627
G1 X-3.187 Y-1.181 E.01627
G1 X-3.068 Y-1.463 E.01631
G1 X-2.933 Y-1.717 E.01532
G1 X-2.767 Y-1.973 E.01626
G1 X-2.578 Y-2.214 E.01628
G1 X-2.368 Y-2.438 E.01632
G1 X-2.155 Y-2.628 E.01527
G1 X-1.909 Y-2.812 E.01631
G1 X-1.55 Y-3.033 E.02245
G1 X-1.55 Y2.992 E.32081
G1 X-1.05 Y3.745 F30000
;TYPE:Outer wall
G1 F1200
G1 X-1.272 Y3.686 E.01226
G1 X-1.596 Y3.558 E.01852
G1 X-1.891 Y3.41 E.0176
G1 X-2.175 Y3.236 E.01767
G1 X-2.456 Y3.028 E.01863
G1 X-2.718 Y2.796 E.01867
G1 X-2.958 Y2.54 E.01866
G1 X-3.174 Y2.265 E.01864
G1 X-3.355 Y1.987 E.01765
G1 X-3.52 Y1.677 E.01868
G1 X-3.656 Y1.354 E.01866
G1 X-3.763 Y1.02 E.01868
G1 X-3.836 Y.697 E.01765
G1 X-3.883 Y.35 E.01863
G1 X-3.899 Y0 E.01869
G1 X-3.885 Y-.331 E.01765
G1 X-3.84 Y-.679 E.01864
G1 X-3.763 Y-1.021 E.01867
G1 X-3.656 Y-1.355 E.01867
G1 X-3.52 Y-1.678 E.01867
G1 X-3.365 Y-1.97 E.01765
G1 X-3.174 Y-2.264 E.01862
G1 X-2.958 Y-2.54 E.01868
G1 X-2.718 Y-2.796 E.01869
G1 X-2.471 Y-3.016 E.01759
G1 X-2.19 Y-3.226 E.01867
G1 X-1.892 Y-3.41 E.01867
G1 X-1.577 Y-3.566 E.01869
G1 X-1.273 Y-3.685 E.01742
G1 X-1.05 Y-3.745 E.01229
G1 X-1.05 Y3.705 E.39671
G1 E-.8 F2100
;WIPE_START
G1 F3000
G1 X-1.272 Y3.686
G1 X-1.596 Y3.558
G1 X-1.891 Y3.41
G1 X-2.175 Y3.236
G1 X-2.456 Y3.028
G1 X-2.718 Y2.796
G1 X-2.763 Y2.748
;WIPE_END
G1 X-2.274 Y1.529 Z.7 F30000
G1 Z.3
G1 E.8 F2100
;TYPE:Gap infill
;WIDTH:0.372609
G1 F1200
G1 X-2.313 Y1.311 E.00834
;WIDTH:0.413979
G1 X-2.352 Y1.093 E.00946
;WIDTH:0.455349
G1 X-2.391 Y.875 E.01058
;WIDTH:0.496719
G1 X-2.43 Y.657 E.0117
;WIDTH:0.536912
G1 X-2.449 Y.437 E.01275
;WIDTH:0.586823
G1 X-2.474 Y.004 E.02769
G1 X-2.455 Y-.433 E.02796
;WIDTH:0.546397
G1 X-2.409 Y-.778 E.02047
;WIDTH:0.506089
G1 X-2.363 Y-1.122 E.01876
;WIDTH:0.485935
G1 X-2.317 Y-1.466 E.0179
G1 E-.8 F2100
;WIPE_START
G1 F3000
G1 X-2.363 Y-1.122
;WIPE_END
G1 X1.994 Y-2.221 Z.7 F30000
G1 Z.3
G1 E.8 F2100
;TYPE:Inner wall
;WIDTH:0.5
G1 F1200
G1 X2.333 Y-1.826 E.02771
G1 X2.614 Y-1.393 E.02747
G1 X2.729 Y-1.153 E.01418
G1 X2.822 Y-.902 E.01427
G1 X2.933 Y-.412 E.02676
G1 X2.962 Y.013 E.02268
G1 X2.951 Y.266 E.01347
G1 X2.86 Y.774 E.02747
G1 X2.778 Y1.029 E.01426
G1 X2.674 Y1.274 E.01418
G1 X2.412 Y1.72 E.02752
G1 X2.248 Y1.93 E.01422
G1 X1.988 Y2.206 E.02017
G1 X1.994 Y-2.181 E.23357
G1 X1.56 Y-3.017 F30000
G1 F1200
G1 X1.782 Y-2.894 E.01352
G1 X2.019 Y-2.734 E.01525
G1 X2.257 Y-2.541 E.01634
G1 X2.476 Y-2.328 E.01627
G1 X2.676 Y-2.095 E.01632
G1 X2.843 Y-1.862 E.01525
G1 X2.999 Y-1.598 E.01633
G1 X3.131 Y-1.323 E.01626
G1 X3.237 Y-1.035 E.01632
G1 X3.313 Y-.759 E.01527
G1 X3.366 Y-.465 E.01586
G1 X3.398 Y.008 E.02529
G1 X3.385 Y.305 E.01582
G1 X3.344 Y.608 E.01627
G1 X3.28 Y.889 E.01531
G1 X3.187 Y1.181 E.01632
G1 X3.068 Y1.462 E.01626
G1 X2.924 Y1.732 E.01632
G1 X2.767 Y1.974 E.01532
G1 X2.578 Y2.214 E.01628
G1 X2.369 Y2.437 E.01627
G1 X2.14 Y2.64 E.01632
G1 X1.909 Y2.812 E.01531
G1 X1.551 Y3.032 E.02236
G1 X1.56 Y-2.977 E.31997
G1 X1.061 Y-3.75 F30000
;TYPE:Outer wall
G1 F1200
G1 X1.103 Y-3.74 E.00232
G1 X1.415 Y-3.633 E.01758
G1 X1.736 Y-3.491 E.0187
G1 X2.043 Y-3.321 E.01868
G1 X2.317 Y-3.136 E.01758
G1 X2.59 Y-2.915 E.0187
G1 X2.841 Y-2.67 E.01866
G1 X3.07 Y-2.404 E.01869
G1 X3.262 Y-2.136 E.01758
G1 X3.441 Y-1.834 E.01869
G1 X3.592 Y-1.517 E.01866
G1 X3.714 Y-1.188 E.01869
G1 X3.801 Y-.87 E.0176
G1 X3.863 Y-.527 E.01853
G1 X3.899 Y.003 E.02829
G1 X3.883 Y.35 E.01852
G1 X3.836 Y.697 E.01863
G1 X3.763 Y1.02 E.01765
G1 X3.656 Y1.354 E.01868
G1 X3.52 Y1.677 E.01866
G1 X3.355 Y1.987 E.01868
G1 X3.174 Y2.265 E.01765
G1 X2.958 Y2.54 E.01864
G1 X2.718 Y2.796 E.01866
G1 X2.456 Y3.029 E.01868
G1 X2.19 Y3.226 E.01764
G1 X1.894 Y3.408 E.01848
G1 X1.413 Y3.634 E.0283
G1 X1.05 Y3.753 E.02031
G1 X1.061 Y-3.71 E.39738
G1 E-.8 F2100
;WIPE_START
G1 F3000
G1 X1.103 Y-3.74
G1 X1.415 Y-3.633
G1 X1.736 Y-3.491
G1 X2.043 Y-3.321
G1 X2.317 Y-3.136
G1 X2.59 Y-2.915
G1 X2.758 Y-2.751
;WIPE_END
G1 X2.344 Y-1.422 Z.7 F30000
G1 Z.3
G1 E.8 F2100
;TYPE:Gap infill
;WIDTH:0.501962
G1 F1200
G1 X2.404 Y-.885 E.02891
;WIDTH:0.549743
G1 X2.464 Y-.348 E.03206
;WIDTH:0.589159
G1 X2.472 Y.217 E.03625
;WIDTH:0.570824
G1 X2.452 Y.438 E.01368
;WIDTH:0.532075
G1 X2.432 Y.658 E.01263
;WIDTH:0.492074
G1 X2.393 Y.875 E.01152
;WIDTH:0.450819
G1 X2.354 Y1.091 E.01041
;WIDTH:0.409565
G1 X2.315 Y1.308 E.0093
;WIDTH:0.388937
G1 X2.276 Y1.525 E.00874
M106 S255
M106 P2 S255
;LAYER_CHANGE
;Z:0.42
;HEIGHT:0.12
;BEFORE_LAYER_CHANGE
;0.42
G1 E-.8 F2100
;WIPE_START
G1 F3000
G1 X2.315 Y1.308
;WIPE_END
;AFTER_LAYER_CHANGE
;0.42
;_SET_FAN_SPEED_CHANGING_LAYER
SET_VELOCITY_LIMIT ACCEL=10000
M140 S50 ; set bed temperature
G17
G3 Z.82 I1.215 J-.073 P1  F30000
G1 X2.145 Y-1.506 Z.82
G1 Z.42
G1 E.8 F2100
SET_VELOCITY_LIMIT ACCEL=5000
;TYPE:Inner wall
;WIDTH:0.45
G1 F1222
G1 X2.327 Y-1.56 E.00393
G1 X2.413 Y-1.429 E.00326
G1 X2.532 Y-1.206 E.00523
G1 X2.703 Y-.749 E.01012
G1 X2.759 Y-.502 E.00527
G1 X2.804 Y0 E.01045
G1 X2.759 Y.502 E.01045
G1 X2.703 Y.749 E.00527
G1 X2.532 Y1.206 E.01012
G1 X2.326 Y1.562 E.00852
G1 X2.144 Y1.508 E.00394
G1 X2.145 Y-1.466 E.06169
SET_VELOCITY_LIMIT ACCEL=10000
G1 E-.8 F2100
;WIPE_START
G1 F18000
G1 X2.327 Y-1.56
G1 X2.413 Y-1.429
G1 X2.532 Y-1.206
G1 X2.703 Y-.749
G1 X2.759 Y-.502
G1 X2.804 Y0
G1 X2.792 Y.14
;WIPE_END
G1 X1.721 Y-2.74 Z.82 F30000
G1 Z.42
G1 E.8 F2100
SET_VELOCITY_LIMIT ACCEL=5000
G1 F1222
G1 X2.033 Y-2.509 E.00805
G1 X2.251 Y-2.315 E.00604
G1 X2.451 Y-2.103 E.00605
G1 X2.619 Y-1.889 E.00564
G1 X2.779 Y-1.645 E.00605
G1 X2.915 Y-1.389 E.00602
G1 X3.028 Y-1.121 E.00605
G1 X3.112 Y-.862 E.00564
G1 X3.177 Y-.578 E.00605
G1 X3.216 Y-.29 E.00602
G1 X3.229 Y0 E.00602
G1 X3.216 Y.29 E.00602
G1 X3.177 Y.578 E.00602
G1 X3.112 Y.862 E.00605
G1 X3.029 Y1.12 E.00563
G1 X2.915 Y1.389 E.00605
G1 X2.778 Y1.647 E.00605
G1 X2.63 Y1.874 E.00563
G1 X2.45 Y2.104 E.00605
G1 X2.251 Y2.315 E.00602
G1 X2.033 Y2.509 E.00604
G1 X1.72 Y2.741 E.0081
G1 X1.721 Y-2.7 E.11287
SET_VELOCITY_LIMIT ACCEL=10000
G1 X1.297 Y-3.412 F30000
M73 P3 R11
SET_VELOCITY_LIMIT ACCEL=5000
G1 F1222
G1 X1.496 Y-3.334 E.00443
G1 X1.772 Y-3.195 E.0064
G1 X2.051 Y-3.024 E.00679
G1 X2.301 Y-2.838 E.00646
G1 X2.547 Y-2.62 E.00683
G1 X2.773 Y-2.38 E.00683
G1 X2.964 Y-2.137 E.00641
G1 X3.144 Y-1.862 E.00683
G1 X3.298 Y-1.572 E.00681
G1 X3.427 Y-1.269 E.00683
G1 X3.521 Y-.975 E.00641
G1 X3.595 Y-.654 E.00683
G1 X3.639 Y-.328 E.00681
G1 X3.654 Y0 E.00682
G1 X3.639 Y.328 E.00681
G1 X3.595 Y.654 E.00682
G1 X3.521 Y.975 E.00683
G1 X3.427 Y1.268 E.0064
G1 X3.298 Y1.572 E.00683
G1 X3.143 Y1.863 E.00684
G1 X2.975 Y2.121 E.0064
G1 X2.772 Y2.38 E.00683
G1 X2.547 Y2.62 E.00681
G1 X2.301 Y2.838 E.00683
G1 X2.051 Y3.024 E.00646
G1 X1.773 Y3.195 E.00678
G1 X1.295 Y3.413 E.01088
G1 X1.297 Y-3.372 E.14073
SET_VELOCITY_LIMIT ACCEL=10000
G1 X.979 Y-3.97 F30000
SET_VELOCITY_LIMIT ACCEL=5000
;TYPE:Outer wall
;WIDTH:0.42
G1 F1222
G1 X1.331 Y-3.866 E.00709
G1 X1.674 Y-3.731 E.00709
G1 X1.984 Y-3.576 E.00668
G1 X2.295 Y-3.384 E.00704
G1 X2.576 Y-3.176 E.00674
G1 X2.851 Y-2.932 E.00709
G1 X3.102 Y-2.664 E.00709
G1 X3.317 Y-2.391 E.00669
G1 X3.519 Y-2.083 E.00709
G1 X3.691 Y-1.759 E.00708
G1 X3.835 Y-1.42 E.00709
G1 X3.941 Y-1.09 E.00669
G1 X4.023 Y-.731 E.00709
G1 X4.073 Y-.367 E.00708
G1 X4.089 Y0 E.00709
G1 X4.073 Y.367 E.00708
G1 X4.023 Y.732 E.00709
G1 X3.941 Y1.09 E.00709
G1 X3.835 Y1.42 E.00669
G1 X3.692 Y1.759 E.00709
G1 X3.518 Y2.084 E.0071
G1 X3.329 Y2.374 E.00668
G1 X3.102 Y2.664 E.00709
G1 X2.851 Y2.932 E.00709
G1 X2.576 Y3.176 E.00709
G1 X2.295 Y3.384 E.00674
G1 X1.984 Y3.576 E.00704
G1 X1.655 Y3.739 E.00709
G1 X1.314 Y3.872 E.00704
G1 X.86 Y3.994 E.00907
G1 X.863 Y-3.994 E.15397
G1 X.94 Y-3.978 E.00151
SET_VELOCITY_LIMIT ACCEL=10000
G1 E-.8 F2100
;WIPE_START
G1 F12000
G1 X1.331 Y-3.866
G1 X1.674 Y-3.731
G1 X1.984 Y-3.576
G1 X2.295 Y-3.384
G1 X2.576 Y-3.176
G1 X2.697 Y-3.068
;WIPE_END
G1 X2.384 Y-.968 Z.82 F30000
G1 Z.42
G1 E.8 F2100
;TYPE:Gap infill
;WIDTH:0.121647
G1 F1222
G1 X2.408 Y-.794 E.00082
;WIDTH:0.161015
G1 X2.431 Y-.62 E.00116
;WIDTH:0.200383
G1 X2.454 Y-.446 E.0015
;WIDTH:0.240241
G1 X2.474 Y0 E.00469
G1 X2.454 Y.448 E.00471
;WIDTH:0.207498
G1 X2.441 Y.561 E.001
;WIDTH:0.18219
G1 X2.429 Y.673 E.00086
;WIDTH:0.146653
G1 X2.404 Y.821 E.00089
;WIDTH:0.123772
G1 X2.378 Y.969 E.00072
G1 E-.8 F2100
;WIPE_START
G1 F12000
G1 X2.404 Y.821
;WIPE_END
G1 X-2.144 Y1.51 Z.82 F30000
G1 Z.42
G1 E.8 F2100
SET_VELOCITY_LIMIT ACCEL=5000
;TYPE:Inner wall
;WIDTH:0.45
G1 F1222
G1 X-2.326 Y1.564 E.00394
G1 X-2.532 Y1.206 E.00855
G1 X-2.703 Y.749 E.01013
G1 X-2.793 Y.252 E.01048
G1 X-2.793 Y-.252 E.01045
G1 X-2.703 Y-.749 E.01048
G1 X-2.531 Y-1.208 E.01016
G1 X-2.326 Y-1.563 E.0085
G1 X-2.144 Y-1.509 E.00394
G1 X-2.144 Y1.47 E.06177
SET_VELOCITY_LIMIT ACCEL=10000
G1 E-.8 F2100
;WIPE_START
G1 F18000
G1 X-2.326 Y1.564
G1 X-2.532 Y1.206
G1 X-2.703 Y.749
G1 X-2.793 Y.252
G1 X-2.793 Y-.137
;WIPE_END
G1 X-1.719 Y2.742 Z.82 F30000
G1 Z.42
G1 E.8 F2100
SET_VELOCITY_LIMIT ACCEL=5000
G1 F1222
G1 X-2.048 Y2.497 E.0085
G1 X-2.25 Y2.316 E.00563
G1 X-2.45 Y2.104 E.00605
G1 X-2.63 Y1.874 E.00605
G1 X-2.778 Y1.647 E.00563
G1 X-2.915 Y1.389 E.00605
G1 X-3.029 Y1.12 E.00605
G1 X-3.112 Y.862 E.00564
G1 X-3.177 Y.578 E.00605
G1 X-3.216 Y.29 E.00602
G1 X-3.229 Y0 E.00602
G1 X-3.216 Y-.29 E.00603
G1 X-3.177 Y-.578 E.00602
G1 X-3.112 Y-.862 E.00605
G1 X-3.029 Y-1.12 E.00563
G1 X-2.915 Y-1.39 E.00608
G1 X-2.786 Y-1.632 E.00568
G1 X-2.629 Y-1.875 E.006
G1 X-2.45 Y-2.104 E.00603
G1 X-2.251 Y-2.315 E.00602
G1 X-2.033 Y-2.509 E.00604
G1 X-1.719 Y-2.742 E.00811
G1 X-1.719 Y2.702 E.11292
SET_VELOCITY_LIMIT ACCEL=10000
G1 X-1.295 Y3.413 F30000
SET_VELOCITY_LIMIT ACCEL=5000
G1 F1222
G1 X-1.773 Y3.195 E.01089
G1 X-2.052 Y3.023 E.00681
G1 X-2.316 Y2.826 E.00683
G1 X-2.546 Y2.62 E.0064
G1 X-2.772 Y2.38 E.00683
G1 X-2.975 Y2.121 E.00683
G1 X-3.144 Y1.862 E.0064
G1 X-3.298 Y1.572 E.00683
G1 X-3.427 Y1.268 E.00683
G1 X-3.521 Y.975 E.0064
G1 X-3.595 Y.654 E.00683
G1 X-3.639 Y.328 E.00681
G1 X-3.654 Y0 E.00681
G1 X-3.639 Y-.328 E.00682
G1 X-3.595 Y-.654 E.00681
G1 X-3.521 Y-.975 E.00683
G1 X-3.427 Y-1.268 E.0064
G1 X-3.298 Y-1.573 E.00685
G1 X-3.152 Y-1.847 E.00645
G1 X-2.975 Y-2.122 E.00678
G1 X-2.772 Y-2.38 E.00682
G1 X-2.547 Y-2.62 E.00681
G1 X-2.301 Y-2.838 E.00683
G1 X-2.051 Y-3.024 E.00646
G1 X-1.773 Y-3.195 E.00678
G1 X-1.295 Y-3.413 E.01089
G1 X-1.295 Y3.373 E.14075
SET_VELOCITY_LIMIT ACCEL=10000
G1 X-.86 Y3.994 F30000
SET_VELOCITY_LIMIT ACCEL=5000
;TYPE:Outer wall
;WIDTH:0.42
G1 F1222
G1 X-1.314 Y3.872 E.00907
G1 X-1.655 Y3.74 E.00704
G1 X-1.984 Y3.576 E.00709
G1 X-2.297 Y3.383 E.00709
G1 X-2.592 Y3.163 E.00709
G1 X-2.85 Y2.932 E.00668
G1 X-3.102 Y2.664 E.00709
G1 X-3.329 Y2.374 E.00709
G1 X-3.518 Y2.084 E.00668
G1 X-3.691 Y1.759 E.00709
G1 X-3.835 Y1.42 E.00709
G1 X-3.941 Y1.09 E.00669
G1 X-4.023 Y.732 E.00709
G1 X-4.073 Y.367 E.00709
G1 X-4.089 Y0 E.00709
G1 X-4.073 Y-.367 E.00709
G1 X-4.023 Y-.731 E.00708
G1 X-3.941 Y-1.09 E.00709
G1 X-3.835 Y-1.42 E.00668
G1 X-3.691 Y-1.759 E.0071
G1 X-3.528 Y-2.068 E.00673
G1 X-3.329 Y-2.375 E.00704
G1 X-3.102 Y-2.664 E.00709
G1 X-2.851 Y-2.932 E.00708
G1 X-2.576 Y-3.176 E.00709
G1 X-2.295 Y-3.384 E.00674
G1 X-1.984 Y-3.576 E.00704
G1 X-1.655 Y-3.739 E.00708
G1 X-1.312 Y-3.873 E.00709
G1 X-.86 Y-3.995 E.00902
G1 X-.86 Y3.954 E.15321
SET_VELOCITY_LIMIT ACCEL=10000
G1 E-.8 F2100
;WIPE_START
G1 F12000
G1 X-1.314 Y3.872
G1 X-1.655 Y3.74
G1 X-1.984 Y3.576
G1 X-2.297 Y3.383
G1 X-2.592 Y3.163
G1 X-2.644 Y3.116
;WIPE_END
G1 X-2.377 Y.971 Z.82 F30000
G1 Z.42
G1 E.8 F2100
;TYPE:Gap infill
;WIDTH:0.101199
G1 F1222
G1 X-2.403 Y.822 E.00056
;WIDTH:0.147544
G1 X-2.428 Y.673 E.0009
;WIDTH:0.183379
G1 X-2.441 Y.561 E.00087
;WIDTH:0.208702
G1 X-2.453 Y.448 E.00101
;WIDTH:0.241554
G1 X-2.474 Y0 E.00474
G1 X-2.453 Y-.448 E.00474
;WIDTH:0.208718
G1 X-2.441 Y-.561 E.00101
;WIDTH:0.183375
G1 X-2.428 Y-.673 E.00087
;WIDTH:0.147534
G1 X-2.403 Y-.822 E.0009
;WIDTH:0.124365
G1 X-2.377 Y-.971 E.00073
;LAYER_CHANGE
;Z:0.54
;HEIGHT:0.12
;BEFORE_LAYER_CHANGE
;0.54
G1 E-.8 F2100
;WIPE_START
G1 F12000
G1 X-2.403 Y-.822
;WIPE_END
;AFTER_LAYER_CHANGE
;0.54
;_SET_FAN_SPEED_CHANGING_LAYER
G17
G3 Z.94 I-1.21 J.134 P1  F30000
G1 X-2.144 Y1.509 Z.94
G1 Z.54
G1 E.8 F2100
SET_VELOCITY_LIMIT ACCEL=5000
;TYPE:Inner wall
;WIDTH:0.45
G1 F1225
G1 X-2.326 Y1.563 E.00394
G1 X-2.532 Y1.206 E.00855
G1 X-2.707 Y.734 E.01045
G1 X-2.793 Y.254 E.01012
G1 X-2.794 Y-.239 E.01022
G1 X-2.707 Y-.734 E.01042
G1 X-2.532 Y-1.206 E.01045
G1 X-2.326 Y-1.563 E.00855
G1 X-2.144 Y-1.509 E.00394
G1 X-2.144 Y1.469 E.06179
SET_VELOCITY_LIMIT ACCEL=10000
G1 E-.8 F2100
;WIPE_START
G1 F18000
G1 X-2.326 Y1.563
G1 X-2.532 Y1.206
G1 X-2.707 Y.734
G1 X-2.793 Y.254
G1 X-2.794 Y-.137
;WIPE_END
G1 X-1.719 Y2.742 Z.94 F30000
G1 Z.54
G1 E.8 F2100
SET_VELOCITY_LIMIT ACCEL=5000
G1 F1225
G1 X-2.045 Y2.499 E.00843
G1 X-2.25 Y2.316 E.00571
G1 X-2.45 Y2.104 E.00604
G1 X-2.628 Y1.877 E.00598
G1 X-2.778 Y1.646 E.00571
G1 X-2.915 Y1.389 E.00604
G1 X-3.028 Y1.122 E.00602
G1 X-3.117 Y.845 E.00602
G1 X-3.18 Y.561 E.00605
G1 X-3.216 Y.291 E.00563
G1 X-3.229 Y-.001 E.00607
G1 X-3.217 Y-.276 E.0057
G1 X-3.18 Y-.562 E.00598
G1 X-3.117 Y-.845 E.00602
G1 X-3.028 Y-1.122 E.00602
G1 X-2.915 Y-1.389 E.00602
G1 X-2.778 Y-1.646 E.00605
G1 X-2.628 Y-1.877 E.0057
G1 X-2.45 Y-2.103 E.00598
G1 X-2.251 Y-2.315 E.00603
G1 X-2.034 Y-2.508 E.00602
G1 X-1.719 Y-2.741 E.00812
G1 X-1.719 Y2.702 E.11289
SET_VELOCITY_LIMIT ACCEL=10000
G1 X-1.295 Y3.413 F30000
SET_VELOCITY_LIMIT ACCEL=5000
G1 F1225
G1 X-1.773 Y3.195 E.01089
G1 X-2.053 Y3.023 E.00682
G1 X-2.314 Y2.828 E.00676
G1 X-2.547 Y2.62 E.00648
G1 X-2.772 Y2.38 E.00683
G1 X-2.973 Y2.124 E.00676
G1 X-3.144 Y1.862 E.00648
G1 X-3.298 Y1.572 E.00682
G1 X-3.426 Y1.269 E.00681
G1 X-3.526 Y.956 E.00681
G1 X-3.598 Y.635 E.00683
G1 X-3.639 Y.329 E.0064
G1 X-3.654 Y-.001 E.00685
G1 X-3.64 Y-.313 E.00648
G1 X-3.598 Y-.636 E.00676
G1 X-3.526 Y-.956 E.00681
G1 X-3.426 Y-1.269 E.00682
G1 X-3.298 Y-1.572 E.00682
G1 X-3.144 Y-1.862 E.00683
G1 X-2.973 Y-2.124 E.00647
G1 X-2.772 Y-2.38 E.00676
G1 X-2.547 Y-2.62 E.00682
