; HEADER_BLOCK_START
; generated by OrcaSlicer 2.3.1 on 2026-02-14 at 12:29:52
; total layer number: 41
; filament_density: 1.24
; filament_diameter: 1.75
; max_z_height: 5.10
; HEADER_BLOCK_END

; THUMBNAIL_BLOCK_START

;
; THUMBNAIL_BLOCK_END

; external perimeters extrusion width = 0.42mm
; perimeters extrusion width = 0.45mm
; infill extrusion width = 0.45mm
; solid infill extrusion width = 0.42mm
; top infill extrusion width = 0.42mm
; first layer extrusion width = 0.50mm

; EXECUTABLE_BLOCK_START
M73 P0 R24
M106 S0
M106 P2 S0
;TYPE:Custom
M190 S55
M104 S220
G90
M83
G1 Z5 F6000
G1 E-0.2 F800
G1 X110 Y-110 F6000
G1 E2 F800
G1 Y-110 X55 Z0.25 F4800
G1 X-55 E8 F2400
G1 Y-109.6 F2400
G1 X55 E5 F2400
G1 Y-110 X55 Z0.45 F4800
G1 X-55 E8 F2400
G1 Y-109.6 F2400
G1 X55 E5 F2400
G92 E0
G90
G21
M83 ; use relative distances for extrusion
; filament start gcode
;right_extruder_material: PLA
SET_PRESSURE_ADVANCE ADVANCE=0.025; Override pressure advance value
M106 S0
M106 P2 S0
;LAYER_CHANGE
;Z:0.3
;HEIGHT:0.3
;BEFORE_LAYER_CHANGE
;0.3
G1 E-.8 F2100
;AFTER_LAYER_CHANGE
;0.3
;_SET_FAN_SPEED_CHANGING_LAYER
SET_VELOCITY_LIMIT ACCEL=500
G1 X14.784 Y-7.248 F30000
G1 Z.7
M73 P1 R24
G1 Z.3
G1 E.8 F2100
;TYPE:Outer wall
;WIDTH:0.5
G1 F3000
G1 X14.612 Y-7.726 E.02706
G1 X14.535 Y-8.082 E.01939
G1 X14.803 Y-8.139 E.01461
G1 X15.574 Y-8.909 E.05801
G1 X14.802 Y-7.284 E.09577
G1 E-.8 F2100
;WIPE_START
G1 F3000
G1 X14.612 Y-7.726
G1 X14.535 Y-8.082
G1 X14.803 Y-8.139
G1 X15.426 Y-8.761
;WIPE_END
G1 X19.404 Y-7.313 Z.7 F30000
G1 Z.3
G1 E.8 F2100
G1 F3000
G1 X19.27 Y-7.313 E.00714
G1 X19.339 Y-7.391 E.00556
G1 X19.378 Y-7.343 E.0033
G1 E-.8 F2100
;WIPE_START
G1 F3000
G1 X19.27 Y-7.313
G1 X19.339 Y-7.391
G1 X19.378 Y-7.343
;WIPE_END
G1 X12.331 Y-4.412 Z.7 F30000
G1 X-.167 Y.785 Z.7
G1 Z.3
G1 E.8 F2100
;TYPE:Inner wall
G1 F3000
G1 X-.175 Y.987 E.01076
G1 X-.441 Y.655 E.02264
G1 X-.551 Y.404 E.01463
G1 X-.605 Y.158 E.01339
G1 X-.626 Y-.143 E.01606
G1 X-.606 Y-.467 E.01728
G1 X-.553 Y-.738 E.01473
G1 X-.477 Y-.948 E.01186
G1 X-.364 Y-1.134 E.01159
G1 X-.077 Y-1.39 E.02048
G1 X-.082 Y-1.278 E.00596
G1 X.081 Y-1.261 E.00872
G1 X.238 Y-1.198 E.00902
G1 X.182 Y-.977 E.01213
G1 X-.093 Y-1.007 E.01474
G1 X-.165 Y.746 E.09342
G1 E-.8 F2100
;WIPE_START
G1 F3000
G1 X-.175 Y.987
G1 X-.441 Y.655
G1 X-.551 Y.404
G1 X-.605 Y.158
G1 X-.626 Y-.143
G1 X-.606 Y-.467
G1 X-.571 Y-.644
;WIPE_END
G1 X-1.742 Y-8.186 Z.7 F30000
G1 X-2.053 Y-10.186 Z.7
G1 Z.3
G1 E.8 F2100
G1 F3000
G1 X-2.495 Y-10.269 E.02395
G1 X-2.3 Y-10.836 E.03195
G1 X-2.067 Y-10.223 E.03491
G1 E-.8 F2100
;WIPE_START
G1 F3000
G1 X-2.495 Y-10.269
G1 X-2.3 Y-10.836
G1 X-2.067 Y-10.223
;WIPE_END
G1 X2.475 Y-4.09 Z.7 F30000
G1 X5.477 Y-.035 Z.7
G1 Z.3
G1 E.8 F2100
G1 F3000
G1 X5.477 Y-.936 E.04798
G1 X5.924 Y-.978 E.02389
G1 X6.251 Y-.938 E.01756
G1 X5.503 Y-.065 E.06123
G1 E-.8 F2100
;WIPE_START
G1 F3000
G1 X5.477 Y-.936
G1 X5.924 Y-.978
G1 X6.251 Y-.938
G1 X6.023 Y-.672
;WIPE_END
G1 X4.657 Y-3.752 Z.7 F30000
G1 Z.3
G1 E.8 F2100
G1 F3000
G1 X.69 Y-3.752 E.2112
G1 X.184 Y-3.83 E.0273
G1 X-.27 Y-3.836 E.02418
G1 X-.658 Y-3.794 E.02076
G1 X-1.17 Y-3.669 E.02803
G1 X-1.654 Y-3.471 E.02789
G1 X-1.993 Y-3.28 E.0207
G1 X-2.405 Y-2.975 E.02731
G1 X-2.708 Y-2.686 E.0223
G1 X-3.024 Y-2.264 E.02808
G1 X-3.606 Y-3.752 E.08511
G1 X-6.047 Y-3.752 E.12998
G1 X-6.501 Y-2.576 E.06712
G1 X-6.933 Y-3.752 E.06672
G1 X-12.968 Y-3.752 E.32133
G1 X-12.968 Y-3.061 E.03683
G1 X-13.177 Y-3.018 E.01139
G1 X-13.321 Y-3.358 E.01961
G1 X-13.653 Y-3.975 E.03734
G1 X-14.08 Y-4.615 E.04095
G1 X-14.57 Y-5.211 E.04111
G1 X-14.883 Y-5.523 E.02353
G1 X-13.938 Y-5.446 E.05049
G1 X-13.789 Y-5.603 E.01153
G1 X-12.382 Y-5.53 E.07502
G1 X-11.817 Y-5.547 E.03006
G1 X-11.307 Y-5.63 E.0275
G1 X-10.887 Y-5.63 E.02241
G1 X-10.376 Y-5.597 E.02723
G1 X-9.206 Y-5.673 E.06246
G1 X-9.104 Y-5.632 E.00583
G1 X-8.572 Y-5.508 E.02907
G1 X-6.909 Y-5.492 E.08858
G1 X-6.893 Y-5.532 E.00233
G1 X-5.968 Y-5.485 E.04928
G1 X-4.272 Y-5.476 E.09031
G1 X-3.428 Y-7.22 E.10317
G1 X-1.07 Y-5.624 E.15159
G1 X.628 Y-5.619 E.09044
G1 X1.957 Y-7.331 E.11537
G1 X2.239 Y-7.168 E.01734
G1 X2.404 Y-7.054 E.01069
G1 X2.004 Y-5.625 E.07897
G1 X4.057 Y-5.487 E.10952
G1 X6.381 Y-5.482 E.12376
G1 X6.894 Y-5.497 E.02731
G1 X7.768 Y-5.583 E.04676
G1 X8.884 Y-5.501 E.05962
G1 X9.504 Y-5.54 E.03306
G1 X10.258 Y-5.705 E.04109
G1 X10.646 Y-5.598 E.02145
G1 X11.141 Y-5.51 E.02676
G1 X11.644 Y-5.498 E.02678
G1 X12.659 Y-5.574 E.0542
G1 X13.691 Y-5.544 E.05499
G1 X14.562 Y-5.682 E.04696
G1 X14.934 Y-5.605 E.0202
G1 X14.269 Y-4.859 E.05323
G1 X13.816 Y-4.236 E.04101
G1 X13.45 Y-3.615 E.0384
G1 X13.133 Y-2.936 E.03987
G1 X12.876 Y-2.209 E.04107
G1 X12.693 Y-1.459 E.04111
G1 X12.668 Y-1.276 E.00985
G1 X12.465 Y-1.254 E.01086
G1 X11.547 Y-3.752 E.14171
G1 X4.697 Y-3.752 E.36474
G1 E-.8 F2100
;WIPE_START
G1 F3000
G1 X2.697 Y-3.752
;WIPE_END
G1 X-.866 Y2.997 Z.7 F30000
G1 X-1.486 Y4.172 Z.7
G1 Z.3
G1 E.8 F2100
G1 F3000
G1 X.109 Y4.166 E.08493
G1 X.256 Y3.929 E.01486
G1 X2.829 Y3.94 E.13698
G1 X2.756 Y4.351 E.0222
G1 X3.079 Y4.212 E.0187
G1 X3.67 Y4.09 E.03213
G1 X4.286 Y4.094 E.03278
G1 X4.66 Y4.159 E.0202
G1 X4.992 Y4.259 E.01849
G1 X5.311 Y4.397 E.01848
G1 X5.633 Y4.586 E.0199
G1 X6.122 Y4.999 E.03405
G1 X6.526 Y5.527 E.03542
G1 X6.82 Y6.119 E.03521
G1 X7.01 Y6.758 E.03546
G1 X7.102 Y7.431 E.0362
G1 X7.102 Y8.125 E.03694
G1 X7.006 Y8.79 E.03576
G1 X6.811 Y9.419 E.0351
G1 X6.513 Y10.002 E.03486
G1 X6.106 Y10.52 E.03504
G1 X5.62 Y10.924 E.03368
G1 X5.282 Y11.119 E.02073
G1 X4.838 Y11.295 E.02544
G1 X4.486 Y11.377 E.01927
G1 X4.141 Y11.416 E.01846
G1 X3.791 Y11.416 E.01864
G1 X3.444 Y11.376 E.01859
G1 X3.104 Y11.295 E.01865
G1 X2.756 Y11.164 E.0198
G1 X2.321 Y10.915 E.02669
G1 X1.985 Y10.635 E.02331
G1 X1.857 Y10.77 E.00993
G1 X1.301 Y11.11 E.03467
G1 X.718 Y11.315 E.03289
G1 X.122 Y11.411 E.03218
G1 X-.451 Y11.415 E.03048
G1 X-1.136 Y11.311 E.03689
G1 X-1.617 Y11.149 E.027
G1 X-2.05 Y10.919 E.02616
G1 X-2.358 Y10.675 E.02093
G1 X-2.571 Y10.851 E.01468
G1 X-3.139 Y11.17 E.03472
G1 X-3.786 Y11.363 E.03592
G1 X-4.439 Y11.423 E.03494
G1 X-4.896 Y11.393 E.02436
G1 X-5.338 Y11.307 E.024
G1 X-5.905 Y11.096 E.03223
G1 X-6.322 Y10.842 E.02601
G1 X-6.853 Y10.333 E.03915
G1 X-7.069 Y9.764 E.03239
G1 X-7.135 Y9.298 E.02507
G1 X-7.087 Y8.808 E.02624
G1 X-6.868 Y8.437 E.02294
G1 X-7.06 Y8.169 E.01756
G1 X-7.211 Y7.845 E.01904
G1 X-7.31 Y7.506 E.01876
G1 X-7.371 Y6.978 E.0283
G1 X-7.351 Y6.602 E.02005
G1 X-7.223 Y6.04 E.03069
G1 X-6.966 Y5.504 E.03169
G1 X-6.609 Y5.043 E.03099
G1 X-6.176 Y4.668 E.03054
G1 X-5.681 Y4.382 E.0304
G1 X-5.141 Y4.188 E.03058
G1 X-4.555 Y4.088 E.03162
G1 X-3.855 Y4.101 E.03728
G1 X-3.256 Y4.236 E.03269
G1 X-2.896 Y4.383 E.02068
G1 X-2.904 Y4.177 E.01095
G1 X-1.526 Y4.172 E.07336
G1 E-.8 F2100
;WIPE_START
G1 F3000
G1 X.109 Y4.166
G1 X.256 Y3.929
G1 X.342 Y3.929
;WIPE_END
G1 X-2.431 Y5.232 Z.7 F30000
G1 Z.3
G1 E.8 F2100
G1 F3000
G1 X-2.453 Y4.611 E.03308
G1 X.352 Y4.6 E.14934
G1 X.498 Y4.365 E.01474
G1 X2.31 Y4.374 E.09649
G1 X2.195 Y5.026 E.03526
G1 X2.356 Y5.117 E.00986
G1 X2.515 Y4.977 E.01125
G1 X2.764 Y4.822 E.01562
G1 X3.211 Y4.63 E.0259
G1 X3.713 Y4.526 E.02733
G1 X4.247 Y4.53 E.02841
G1 X4.56 Y4.584 E.01691
G1 X4.843 Y4.668 E.01572
G1 X5.113 Y4.786 E.01571
G1 X5.381 Y4.943 E.01651
G1 X5.804 Y5.301 E.02953
G1 X6.154 Y5.758 E.03067
G1 X6.413 Y6.279 E.03097
G1 X6.582 Y6.85 E.0317
G1 X6.666 Y7.461 E.03284
G1 X6.666 Y8.094 E.03369
G1 X6.58 Y8.694 E.03227
G1 X6.406 Y9.255 E.03126
G1 X6.144 Y9.766 E.03061
G1 X5.792 Y10.214 E.03034
G1 X5.37 Y10.565 E.02924
G1 X5.092 Y10.725 E.01706
G1 X4.708 Y10.878 E.02203
G1 X4.411 Y10.947 E.01622
G1 X4.117 Y10.981 E.01579
G1 X3.816 Y10.981 E.01598
G1 X3.52 Y10.947 E.01586
G1 X3.231 Y10.877 E.01582
G1 X2.942 Y10.769 E.01649
G1 X2.57 Y10.556 E.02277
G1 X2.317 Y10.345 E.01754
G1 X2.114 Y10.109 E.01657
G1 X2.018 Y9.964 E.00926
G1 X1.58 Y10.429 E.03403
G1 X1.113 Y10.715 E.02912
G1 X.611 Y10.891 E.02835
G1 X.085 Y10.975 E.02834
G1 X-.42 Y10.979 E.02689
G1 X-1.033 Y10.886 E.03303
G1 X-1.444 Y10.748 E.02307
G1 X-1.811 Y10.553 E.02214
G1 X-2.018 Y10.388 E.01411
G1 X-2.348 Y10.026 E.02604
G1 X-2.621 Y10.326 E.0216
G1 X-2.818 Y10.49 E.01367
G1 X-3.31 Y10.766 E.03004
G1 X-3.869 Y10.933 E.03104
G1 X-4.445 Y10.986 E.03081
G1 X-4.839 Y10.96 E.02104
G1 X-5.219 Y10.886 E.02063
G1 X-5.715 Y10.702 E.02811
G1 X-6.055 Y10.495 E.02125
G1 X-6.481 Y10.087 E.03138
G1 X-6.644 Y9.655 E.02459
G1 X-6.697 Y9.289 E.01971
G1 X-6.663 Y8.946 E.01831
G1 X-6.469 Y8.618 E.02034
G1 X-6.269 Y8.452 E.0138
G1 X-6.418 Y8.318 E.01066
G1 X-6.682 Y7.948 E.02423
G1 X-6.803 Y7.691 E.01512
G1 X-6.881 Y7.42 E.015
G1 X-6.934 Y6.965 E.0244
G1 X-6.918 Y6.663 E.01611
G1 X-6.809 Y6.185 E.02611
G1 X-6.593 Y5.734 E.02664
G1 X-6.291 Y5.344 E.02621
G1 X-5.922 Y5.024 E.02603
G1 X-5.497 Y4.779 E.02611
G1 X-5.03 Y4.611 E.02645
G1 X-4.522 Y4.524 E.0274
G1 X-3.908 Y4.536 E.03273
G1 X-3.387 Y4.653 E.02842
G1 X-3.043 Y4.793 E.01979
G1 X-2.717 Y4.983 E.02006
G1 X-2.461 Y5.206 E.01807
G1 E-.8 F2100
;WIPE_START
G1 F3000
G1 X-2.453 Y4.611
G1 X-1.047 Y4.606
;WIPE_END
G1 X-.871 Y6.498 Z.7 F30000
G1 Z.3
G1 E.8 F2100
;TYPE:Outer wall
G1 F3000
G1 X-.862 Y6.863 E.01946
G1 X-.498 Y6.747 E.02036
G1 X-.17 Y6.704 E.01759
G1 X.206 Y6.706 E.02004
G1 X.762 Y6.781 E.02985
G1 X1.11 Y6.926 E.02011
G1 X1.284 Y7.043 E.01113
G1 X1.418 Y7.187 E.01048
G1 X1.702 Y7.578 E.02572
G1 X1.841 Y7.899 E.01865
G1 X1.912 Y8.253 E.01923
G1 X1.911 Y8.639 E.02053
G1 X1.88 Y8.848 E.01125
G1 X1.664 Y9.537 E.03848
G1 X1.546 Y9.736 E.01227
G1 X1.262 Y10.038 E.02209
G1 X.897 Y10.261 E.02275
G1 X.488 Y10.405 E.02313
G1 X.044 Y10.476 E.02393
G1 X-.384 Y10.479 E.02277
G1 X-.915 Y10.398 E.0286
G1 X-1.245 Y10.287 E.01856
G1 X-1.536 Y10.133 E.01752
G1 X-1.676 Y10.022 E.00952
G1 X-1.886 Y9.791 E.01659
G1 X-2.03 Y9.495 E.01754
G1 X-2.03 Y8.981 E.02735
G1 X-1.935 Y8.741 E.01375
G1 X-1.759 Y8.556 E.01361
G1 X-1.521 Y8.45 E.01385
G1 X-1.261 Y8.449 E.01386
G1 X-1.044 Y8.54 E.01253
G1 X-.688 Y8.834 E.02457
G1 X-.648 Y9.061 E.01228
G1 X-.689 Y9.287 E.01221
G1 X-.494 Y9.365 E.01116
G1 X-.398 Y9.38 E.00518
G1 X-.092 Y9.369 E.01628
G1 X.068 Y9.325 E.00886
G1 X.199 Y9.257 E.00787
G1 X.307 Y9.168 E.00743
G1 X.394 Y9.056 E.00758
G1 X.462 Y8.916 E.00828
G1 X.506 Y8.749 E.00919
G1 X.518 Y8.434 E.01677
G1 X.464 Y8.163 E.0147
G1 X.404 Y8.031 E.00773
G1 X.328 Y7.928 E.00683
G1 X.164 Y7.787 E.01151
G1 X.013 Y7.759 E.00818
G1 X-.08 Y7.696 E.00598
G1 X-.121 Y7.727 E.00273
G1 X-.446 Y7.728 E.01727
G1 X-.618 Y7.789 E.00975
G1 X-.966 Y7.983 E.02119
G1 X-1.147 Y8.219 E.01585
G1 X-1.775 Y8.073 E.03432
G1 X-1.809 Y6.941 E.06027
G1 X-1.904 Y5.994 E.05069
G1 X-1.935 Y5.109 E.04715
G1 X.549 Y5.1 E.13227
G1 X.64 Y5.085 E.0049
G1 X.775 Y4.867 E.01366
G1 X1.714 Y4.871 E.05
G1 X1.563 Y5.725 E.04619
G1 X1.397 Y6.401 E.03705
G1 X.664 Y6.315 E.0393
G1 X.227 Y6.295 E.02329
G1 X-.211 Y6.295 E.0233
G1 X-.85 Y6.336 E.03408
G1 X-.866 Y6.458 E.0066
G1 E-.8 F2100
;WIPE_START
G1 F3000
G1 X-.862 Y6.863
G1 X-.498 Y6.747
G1 X-.17 Y6.704
G1 X.206 Y6.706
G1 X.707 Y6.774
;WIPE_END
G1 X2.514 Y9.807 Z.7 F30000
G1 Z.3
G1 E.8 F2100
G1 F3000
G1 X2.376 Y9.6 E.01324
G1 X2.062 Y8.759 E.04777
G1 X1.958 Y8.274 E.02642
G1 X1.93 Y8.005 E.01442
G1 X1.924 Y7.593 E.0219
G1 X1.967 Y7.209 E.02061
G1 X1.96 Y6.939 E.01434
G1 X1.998 Y6.633 E.01644
G1 X2.135 Y6.22 E.02316
G1 X2.274 Y5.964 E.01551
G1 X2.518 Y5.639 E.02167
G1 X2.814 Y5.38 E.02092
G1 X2.996 Y5.266 E.01144
G1 X3.361 Y5.109 E.02116
G1 X3.763 Y5.026 E.02182
G1 X4.202 Y5.029 E.0234
G1 X4.445 Y5.072 E.01313
G1 X4.671 Y5.139 E.01254
G1 X4.887 Y5.233 E.01253
G1 X5.091 Y5.352 E.01262
G1 X5.44 Y5.648 E.02435
G1 X5.728 Y6.024 E.02521
G1 X5.946 Y6.463 E.02611
G1 X6.092 Y6.956 E.02738
G1 X6.166 Y7.495 E.02898
G1 X6.166 Y8.058 E.02996
G1 X6.09 Y8.583 E.02827
G1 X5.941 Y9.065 E.02686
G1 X5.721 Y9.495 E.02573
G1 X5.432 Y9.864 E.02494
G1 X5.083 Y10.154 E.02415
G1 X4.874 Y10.274 E.01283
G1 X4.558 Y10.399 E.01812
G1 X4.325 Y10.454 E.01271
G1 X4.088 Y10.481 E.01272
G1 X3.845 Y10.481 E.01294
G1 X3.608 Y10.453 E.01274
G1 X3.378 Y10.398 E.01257
G1 X3.155 Y10.315 E.01269
G1 X2.857 Y10.144 E.01828
G1 X2.67 Y9.988 E.01299
G1 X2.54 Y9.837 E.01059
G1 E-.8 F2100
;WIPE_START
G1 F3000
G1 X2.376 Y9.6
G1 X2.062 Y8.759
G1 X1.958 Y8.274
G1 X1.93 Y8.005
G1 X1.93 Y7.957
;WIPE_END
G1 X-3.453 Y8.339 Z.7 F30000
G1 Z.3
G1 E.8 F2100
G1 F3000
G1 X-3.701 Y8.477 E.01507
G1 X-3.937 Y8.557 E.01326
G1 X-4.335 Y8.658 E.02187
G1 X-5.007 Y8.558 E.03617
G1 X-5.188 Y8.501 E.01014
G1 X-5.481 Y8.361 E.01724
G1 X-5.892 Y8.119 E.0254
G1 X-6.042 Y7.983 E.0108
G1 X-6.249 Y7.694 E.01892
G1 X-6.333 Y7.514 E.01062
G1 X-6.39 Y7.321 E.01068
G1 X-6.432 Y6.949 E.01991
G1 X-6.421 Y6.732 E.01159
G1 X-6.334 Y6.35 E.02085
G1 X-6.165 Y5.997 E.02084
G1 X-5.927 Y5.69 E.02072
G1 X-5.631 Y5.434 E.02084
G1 X-5.286 Y5.234 E.02118
G1 X-4.902 Y5.097 E.02172
G1 X-4.485 Y5.025 E.02256
G1 X-3.968 Y5.035 E.0275
G1 X-3.537 Y5.132 E.02352
G1 X-3.264 Y5.243 E.01572
G1 X-3.01 Y5.391 E.01566
G1 X-2.686 Y5.673 E.02285
G1 X-2.443 Y6.034 E.02317
G1 X-2.334 Y6.353 E.01795
G1 X-2.254 Y6.88 E.02839
G1 X-2.221 Y7.64 E.04054
G1 X-2.234 Y8.072 E.02298
G1 X-2.268 Y8.355 E.01519
G1 X-2.345 Y8.681 E.01783
G1 X-2.591 Y9.451 E.04303
G1 X-2.755 Y9.731 E.01731
G1 X-2.967 Y9.964 E.01676
G1 X-3.103 Y10.076 E.00939
G1 X-3.506 Y10.303 E.02466
G1 X-3.964 Y10.44 E.02544
G1 X-4.452 Y10.485 E.02607
G1 X-4.775 Y10.463 E.01723
G1 X-5.084 Y10.403 E.01677
G1 X-5.496 Y10.25 E.02339
G1 X-5.749 Y10.096 E.01578
G1 X-6.053 Y9.804 E.02246
G1 X-6.157 Y9.53 E.01564
G1 X-6.193 Y9.277 E.01356
G1 X-6.176 Y9.106 E.0092
G1 X-6.083 Y8.947 E.0098
G1 X-5.964 Y8.849 E.00822
G1 X-5.725 Y8.729 E.01419
G1 X-5.531 Y8.69 E.01057
G1 X-5.388 Y8.703 E.00764
G1 X-5.252 Y8.744 E.00756
G1 X-5.054 Y8.882 E.01283
G1 X-4.815 Y9.258 E.02374
G1 X-4.789 Y9.331 E.00413
G1 X-4.558 Y9.382 E.01262
G1 X-4.348 Y9.385 E.01118
G1 X-4.153 Y9.351 E.0105
G1 X-3.991 Y9.289 E.00924
G1 X-3.779 Y9.145 E.01365
G1 X-3.585 Y8.937 E.01513
G1 X-3.503 Y8.657 E.01557
G1 X-3.46 Y8.379 E.01496
G1 E-.8 F2100
;WIPE_START
G1 F3000
G1 X-3.701 Y8.477
G1 X-3.937 Y8.557
G1 X-4.335 Y8.658
G1 X-5.007 Y8.558
G1 X-5.188 Y8.501
G1 X-5.378 Y8.41
;WIPE_END
G1 X-2.986 Y1.162 Z.7 F30000
G1 X-1.09 Y-4.585 Z.7
G1 Z.3
M73 P2 R24
G1 E.8 F2100
;TYPE:Inner wall
G1 F3000
G1 X-1.439 Y-4.5 E.01914
G1 X-2.034 Y-4.257 E.03425
G1 X-2.467 Y-4.013 E.02645
G1 X-2.704 Y-3.838 E.01568
G1 X-3.011 Y-4.623 E.0449
G1 X-3.717 Y-4.623 E.03759
G1 X-3.083 Y-5.934 E.07755
G1 X-1.123 Y-4.608 E.126
G1 E-.8 F2100
;WIPE_START
G1 F3000
G1 X-1.439 Y-4.5
G1 X-2.034 Y-4.257
G1 X-2.467 Y-4.013
G1 X-2.704 Y-3.838
G1 X-2.789 Y-4.054
;WIPE_END
G1 X4.838 Y-4.364 Z.7 F30000
G1 X12.141 Y-4.662 Z.7
G1 Z.3
G1 E.8 F2100
G1 F3000
G1 X12.679 Y-4.702 E.02871
G1 X13.072 Y-4.69 E.02097
G1 X12.679 Y-4.021 E.04133
G1 X12.509 Y-3.659 E.02127
G1 X12.155 Y-4.624 E.05474
G1 E-.8 F2100
;WIPE_START
G1 F3000
G1 X12.679 Y-4.702
G1 X13.072 Y-4.69
G1 X12.679 Y-4.021
G1 X12.551 Y-3.749
;WIPE_END
G1 X5.63 Y-4.188 Z.7 F30000
G1 Z.3
G1 E.8 F2100
G1 F3000
G1 X.724 Y-4.188 E.26125
G1 X.219 Y-4.265 E.02716
G1 X-.291 Y-4.272 E.0272
G1 X-.733 Y-4.224 E.02367
G1 X-1.304 Y-4.085 E.03129
G1 X-1.844 Y-3.864 E.03107
G1 X-2.23 Y-3.647 E.02357
G1 X-2.687 Y-3.309 E.03023
G1 X-2.889 Y-3.115 E.01493
G1 X-3.309 Y-4.188 E.06133
G1 X-6.346 Y-4.188 E.16173
G1 X-6.491 Y-3.812 E.02145
G1 X-6.629 Y-4.188 E.02132
G1 X-13.271 Y-4.188 E.35366
G1 X-13.8 Y-4.961 E.04986
G1 X-13.612 Y-5.158 E.01451
G1 X-12.386 Y-5.094 E.06534
G1 X-11.775 Y-5.113 E.03254
G1 X-11.272 Y-5.194 E.02715
G1 X-10.901 Y-5.194 E.01979
G1 X-10.376 Y-5.161 E.02798
G1 X-9.275 Y-5.232 E.05876
G1 X-8.625 Y-5.072 E.03563
G1 X-6.615 Y-5.053 E.10702
G1 X-6.604 Y-5.081 E.00162
G1 X-5.981 Y-5.05 E.03323
G1 X-4 Y-5.039 E.10546
G1 X-3.255 Y-6.577 E.09099
G1 X-1.204 Y-5.189 E.13187
G1 X.841 Y-5.183 E.10891
G1 X1.417 Y-5.924 E.04997
G1 X1.609 Y-5.828 E.01145
G1 X1.44 Y-5.227 E.03323
G1 X4.042 Y-5.052 E.13881
G1 X6.387 Y-5.046 E.12489
G1 X6.921 Y-5.062 E.02846
G1 X7.773 Y-5.146 E.04557
G1 X8.882 Y-5.064 E.05921
G1 X9.565 Y-5.107 E.03641
G1 X10.246 Y-5.256 E.03714
