; HEADER_BLOCK_START
; generated by OrcaSlicer 2.3.1 on 2026-02-14 at 16:49:07
; total layer number: 18
; filament_density: 1.26
; filament_diameter: 1.75
; max_z_height: 2.24
; HEADER_BLOCK_END

; THUMBNAIL_BLOCK_START

;
; THUMBNAIL_BLOCK_END

; external perimeters extrusion width = 0.42mm
; perimeters extrusion width = 0.45mm
; infill extrusion width = 0.45mm
; solid infill extrusion width = 0.42mm
; top infill extrusion width = 0.42mm
; first layer extrusion width = 0.50mm

; EXECUTABLE_BLOCK_START
M73 P0 R6
M106 S0
M106 P2 S0
;TYPE:Custom
M190 S100
M104 S250
G90
M83
G1 Z5 F6000
G1 E-0.2 F800
G1 X110 Y-110 F6000
G1 E2 F800
G1 Y-110 X55 Z0.25 F4800
G1 X-55 E8 F2400
G1 Y-109.6 F2400
M73 P1 R6
G1 X55 E5 F2400
G1 Y-110 X55 Z0.45 F4800
M73 P2 R6
G1 X-55 E8 F2400
G1 Y-109.6 F2400
G1 X55 E5 F2400
G92 E0
G90
G21
M83 ; use relative distances for extrusion
; Filament gcode
M106 S0
M106 P2 S0
;LAYER_CHANGE
;Z:0.2
;HEIGHT:0.2
;BEFORE_LAYER_CHANGE
;0.2
G1 E-.8 F2100
M73 P3 R6
;AFTER_LAYER_CHANGE
;0.2
;_SET_FAN_SPEED_CHANGING_LAYER
SET_VELOCITY_LIMIT ACCEL=500
G1 X-12.235 Y-12.328 F30000
G1 Z.2
G1 Z.2
G1 E.8 F2100
;TYPE:Skirt
;WIDTH:0.5
G1 F2625.363
G1 X-10.995 Y-13.446 E.06343
G1 F2640
G1 X-9.598 Y-14.476 E.06597
G1 X-8.118 Y-15.355 E.06544
G1 X-6.55 Y-16.086 E.06574
G1 X-4.925 Y-16.656 E.06547
G1 X-3.31 Y-17.051 E.06317
G1 X-1.592 Y-17.296 E.06596
G1 X.129 Y-17.369 E.06547
G1 X1.788 Y-17.277 E.06316
G1 X3.504 Y-17.012 E.06597
G1 X5.101 Y-16.603 E.06267
M73 P4 R6
G1 X6.733 Y-16.011 E.06596
G1 X8.297 Y-15.259 E.06597
G1 X9.723 Y-14.392 E.06341
G1 X11.111 Y-13.35 E.06597
G1 X12.374 Y-12.189 E.06522
G1 X13.487 Y-10.945 E.06342
G1 X14.512 Y-9.544 E.06596
G1 X15.357 Y-8.114 E.06316
G1 X16.086 Y-6.552 E.06548
G1 X16.659 Y-4.914 E.06597
G1 X17.05 Y-3.312 E.06266
G1 X17.294 Y-1.614 E.06522
G1 X17.369 Y.12 E.06596
G1 X17.277 Y1.786 E.06342
G1 X17.015 Y3.489 E.06545
G1 X16.584 Y5.164 E.06574
G1 X16.012 Y6.731 E.06342
G1 X15.269 Y8.278 E.06522
G1 X14.367 Y9.761 E.06596
G1 X13.376 Y11.079 E.06268
G1 X12.204 Y12.359 E.06596
G1 X10.962 Y13.473 E.06343
G1 X9.574 Y14.492 E.06545
G1 X8.085 Y15.372 E.06573
G1 X6.572 Y16.077 E.06342
G1 X4.941 Y16.651 E.06574
G1 X3.268 Y17.059 E.06545
G1 X1.635 Y17.292 E.06267
G1 X-.099 Y17.369 E.06597
G1 X-1.765 Y17.279 E.06342
G1 X-3.467 Y17.019 E.06545
G1 X-5.143 Y16.59 E.06574
G1 X-6.711 Y16.02 E.06341
G1 X-8.259 Y15.28 E.06522
G1 X-9.743 Y14.379 E.06596
G1 X-11.078 Y13.378 E.06342
G1 X-12.344 Y12.219 E.06522
G1 X-13.459 Y10.978 E.06342
G1 X-14.477 Y9.597 E.06521
G1 X-15.331 Y8.163 E.06342
G1 X-16.062 Y6.611 E.06522
G1 X-16.622 Y5.039 E.06341
G1 X-17.039 Y3.368 E.06545
G1 X-17.29 Y1.657 E.06574
G1 X-17.369 Y-.077 E.06597
G1 X-17.283 Y-1.724 E.06267
G1 X-17.025 Y-3.44 E.06596
G1 X-16.62 Y-5.045 E.06291
G1 X-16.036 Y-6.673 E.06573
G1 F2580
G1 X-15.328 Y-8.169 E.06291
G1 X-14.44 Y-9.653 E.06573
G1 F2520
G1 X-13.404 Y-11.046 E.06597
G1 X-12.262 Y-12.299 E.06444
G1 X-11.925 Y-11.991 F30000
G1 F2625.363
G1 X-11.916 Y-12 E.00046
G1 F2520
G1 X-10.659 Y-13.13 E.06424
G1 X-9.342 Y-14.098 E.06212
G1 F2580
G1 X-7.909 Y-14.949 E.06336
G1 X-6.383 Y-15.661 E.06401
G1 F2640
G1 X-4.799 Y-16.217 E.06378
G1 X-3.228 Y-16.601 E.06147
G1 X-1.555 Y-16.84 E.06423
G1 X.122 Y-16.911 E.06378
G1 X1.736 Y-16.823 E.06146
G1 X3.407 Y-16.565 E.06423
G1 X4.962 Y-16.167 E.06102
G1 X6.551 Y-15.592 E.06423
G1 X8.026 Y-14.886 E.06212
G1 X9.471 Y-14.011 E.06423
G1 X10.822 Y-12.996 E.06424
G1 X12.045 Y-11.871 E.06313
G1 X13.135 Y-10.653 E.06212
G1 X14.132 Y-9.289 E.06422
G1 X14.955 Y-7.897 E.06147
G1 X15.664 Y-6.375 E.06379
G1 X16.222 Y-4.78 E.06423
G1 X16.602 Y-3.221 E.06101
G1 X16.838 Y-1.576 E.06314
G1 X16.912 Y.112 E.06423
G1 X16.822 Y1.744 E.06212
G1 X16.568 Y3.392 E.06337
G1 X16.149 Y5.023 E.064
G1 X15.588 Y6.558 E.06212
G1 X14.87 Y8.056 E.06313
G1 X13.992 Y9.5 E.06423
G1 X13.028 Y10.784 E.06103
G1 X11.886 Y12.03 E.06422
G1 X10.669 Y13.122 E.06213
G1 X9.326 Y14.108 E.06336
G1 X7.876 Y14.966 E.064
G1 X6.395 Y15.656 E.06212
G1 X4.806 Y16.215 E.064
G1 X3.186 Y16.609 E.06336
G1 X1.597 Y16.836 E.06102
G1 X-.091 Y16.912 E.06423
G1 X-1.723 Y16.824 E.06212
G1 X-3.371 Y16.572 E.06336
G1 X-5.003 Y16.155 E.06401
G1 X-6.539 Y15.597 E.06211
G1 X-8.038 Y14.88 E.06314
G1 X-9.482 Y14.003 E.06423
M73 P5 R6
G1 X-10.79 Y13.023 E.06212
G1 X-12.016 Y11.901 E.06314
G1 X-13.108 Y10.686 E.06212
G1 X-14.093 Y9.348 E.06313
G1 X-14.93 Y7.944 E.06212
G1 X-15.637 Y6.441 E.06314
G1 X-16.186 Y4.902 E.06211
G1 X-16.59 Y3.284 E.06337
G1 X-16.834 Y1.618 E.064
G1 X-16.912 Y-.07 E.06424
G1 X-16.829 Y-1.674 E.06102
G1 X-16.578 Y-3.345 E.06422
G1 X-16.184 Y-4.908 E.06125
G1 X-15.616 Y-6.493 E.064
G1 X-14.927 Y-7.95 E.06125
G1 X-14.062 Y-9.395 E.064
G1 X-13.055 Y-10.751 E.06423
G1 X-11.952 Y-11.962 E.06224
G1 E-.8 F2100
;WIPE_START
G1 F2625.363
G1 X-11.916 Y-12
G1 X-10.659 Y-13.13
G1 X-10.452 Y-13.282
;WIPE_END
G1 X-7.054 Y-6.4 F30000
G1 E.8 F2100
;TYPE:Inner wall
G1 F2625.363
G1 X-6.4 Y-7.056 E.03519
G1 F2640
G1 X-5.665 Y-7.659 E.03616
G1 X-4.874 Y-8.185 E.0361
G1 X-4.116 Y-8.591 E.03265
G1 X-3.241 Y-8.958 E.03609
G1 X-2.331 Y-9.236 E.03616
G1 X-1.398 Y-9.423 E.03614
G1 X-.453 Y-9.515 E.03609
G1 X.406 Y-9.517 E.03265
G1 X1.351 Y-9.43 E.03609
G1 X2.285 Y-9.248 E.03616
G1 X3.196 Y-8.974 E.03615
G1 X4.073 Y-8.611 E.03609
G1 X4.833 Y-8.209 E.03267
G1 X5.626 Y-7.687 E.03608
G1 X6.365 Y-7.088 E.03615
G1 X7.04 Y-6.418 E.03615
G1 X7.645 Y-5.684 E.03615
G1 X8.173 Y-4.893 E.03615
G1 X8.62 Y-4.055 E.0361
G1 X8.95 Y-3.262 E.03265
G1 X9.23 Y-2.354 E.0361
G1 X9.419 Y-1.422 E.03614
G1 X9.514 Y-.475 E.03616
G1 X9.514 Y.474 E.03608
G1 X9.433 Y1.329 E.03265
G1 X9.254 Y2.262 E.03609
G1 X8.982 Y3.173 E.03615
G1 X8.621 Y4.053 E.03615
G1 X8.173 Y4.893 E.03616
G1 X7.645 Y5.682 E.03609
G1 X7.102 Y6.348 E.03264
G1 X6.435 Y7.024 E.0361
G1 X5.703 Y7.63 E.03615
G1 X4.913 Y8.161 E.03614
G1 X4.076 Y8.61 E.03611
G1 X3.284 Y8.942 E.03265
G1 X2.377 Y9.225 E.03609
G1 X1.446 Y9.416 E.03615
G1 X.499 Y9.513 E.03615
G1 X-.452 Y9.515 E.03615
G1 X-1.398 Y9.423 E.03614
G1 X-2.331 Y9.236 E.03614
G1 X-3.239 Y8.958 E.0361
G1 X-4.033 Y8.63 E.03266
G1 X-4.872 Y8.186 E.03609
G1 X-5.664 Y7.659 E.03615
G1 X-6.4 Y7.056 E.03616
G1 X-7.071 Y6.383 E.03608
G1 X-7.617 Y5.72 E.03265
G1 X-8.149 Y4.934 E.03608
G1 X-8.6 Y4.096 E.03617
G1 X-8.966 Y3.218 E.03614
G1 X-9.242 Y2.308 E.03615
G1 X-9.426 Y1.375 E.03616
G1 X-9.516 Y.43 E.03608
G1 X-9.516 Y-.43 E.03267
G1 X-9.426 Y-1.375 E.03608
G1 X-9.242 Y-2.306 E.03607
G1 X-8.997 Y-3.13 E.03267
G1 X-8.641 Y-4.01 E.03609
G1 X-8.198 Y-4.852 E.03614
G1 X-7.673 Y-5.645 E.03615
G1 X-7.094 Y-6.355 E.03482
G1 X-6.7 Y-6.047 F30000
;TYPE:Outer wall
G1 F2640
G1 X-6.064 Y-6.685 E.03424
G1 X-5.367 Y-7.256 E.03426
G1 X-4.617 Y-7.755 E.03425
G1 X-3.901 Y-8.139 E.03085
G1 X-3.07 Y-8.487 E.03424
G1 X-2.208 Y-8.751 E.03426
G1 X-1.325 Y-8.928 E.03424
G1 X-.428 Y-9.015 E.03424
G1 X.383 Y-9.017 E.03084
G1 X1.28 Y-8.934 E.03423
G1 X2.165 Y-8.762 E.03426
G1 X3.028 Y-8.502 E.03425
G1 X3.86 Y-8.158 E.03424
G1 X4.578 Y-7.778 E.03086
G1 X5.33 Y-7.283 E.03423
G1 X6.03 Y-6.715 E.03425
G1 X6.67 Y-6.08 E.03425
G1 X7.243 Y-5.385 E.03425
G1 X7.744 Y-4.636 E.03425
G1 X8.167 Y-3.84 E.03425
G1 X8.479 Y-3.091 E.03084
G1 X8.745 Y-2.23 E.03425
G1 X8.924 Y-1.347 E.03424
G1 X9.014 Y-.45 E.03426
G1 X9.014 Y.45 E.03423
G1 X8.937 Y1.258 E.03085
G1 X8.767 Y2.143 E.03424
G1 X8.51 Y3.006 E.03425
G1 X8.168 Y3.84 E.03425
G1 X7.744 Y4.636 E.03426
G1 X7.243 Y5.385 E.03424
G1 X6.73 Y6.014 E.03084
G1 X6.097 Y6.655 E.03424
G1 X5.403 Y7.229 E.03425
G1 X4.655 Y7.732 E.03424
G1 X3.861 Y8.158 E.03425
G1 X3.112 Y8.472 E.03085
G1 X2.252 Y8.74 E.03424
G1 X1.37 Y8.921 E.03425
G1 X.473 Y9.013 E.03425
G1 X-.428 Y9.015 E.03425
G1 X-1.325 Y8.928 E.03425
G1 X-2.208 Y8.751 E.03424
G1 X-3.07 Y8.487 E.03425
G1 X-3.82 Y8.177 E.03085
G1 X-4.616 Y7.755 E.03424
G1 X-5.367 Y7.256 E.03425
G1 X-6.064 Y6.685 E.03426
G1 X-6.7 Y6.047 E.03423
G1 X-7.216 Y5.421 E.03085
G1 X-7.72 Y4.675 E.03423
G1 X-8.148 Y3.881 E.03427
G1 X-8.495 Y3.049 E.03424
G1 X-8.756 Y2.187 E.03425
G1 X-8.931 Y1.302 E.03426
G1 X-9.016 Y.406 E.03423
G1 X-9.016 Y-.406 E.03087
G1 X-8.931 Y-1.303 E.03423
G1 X-8.757 Y-2.186 E.03422
G1 X-8.525 Y-2.965 E.03087
G1 X-8.187 Y-3.8 E.03424
G1 X-7.767 Y-4.597 E.03424
M73 P6 R6
G1 X-7.27 Y-5.349 E.03425
G1 X-6.738 Y-6 E.03197
G1 E-.8 F2100
;WIPE_START
G1 F2625.363
G1 X-6.064 Y-6.685
G1 X-5.367 Y-7.256
G1 X-5.252 Y-7.333
;WIPE_END
G1 X13.539 Y-2.956 F30000
G1 E.8 F2100
;TYPE:Inner wall
G1 F2640
G1 X13.67 Y-2.275 E.02637
G1 X13.759 Y-1.659 E.02362
G1 X13.824 Y-.969 E.02636
G1 X13.855 Y-.277 E.02632
G1 X13.852 Y.415 E.02632
G1 X13.814 Y1.107 E.02632
G1 X13.741 Y1.796 E.02632
G1 X13.634 Y2.481 E.02637
G1 X13.509 Y3.09 E.02361
G1 X13.338 Y3.762 E.02636
G1 X13.133 Y4.424 E.02632
G1 X12.896 Y5.075 E.02633
G1 X12.626 Y5.712 E.02632
G1 X12.324 Y6.337 E.02637
G1 X12.028 Y6.883 E.02361
G1 X11.668 Y7.476 E.02636
G1 X11.28 Y8.05 E.02632
G1 X10.867 Y8.6 E.02616
G1 X10.467 Y9.083 E.02382
G1 X9.999 Y9.595 E.02636
G1 X9.507 Y10.083 E.02632
G1 X8.992 Y10.545 E.02632
G1 X8.454 Y10.981 E.02633
G1 X7.893 Y11.391 E.02637
G1 X7.375 Y11.733 E.02362
G1 X6.779 Y12.087 E.02635
G1 X6.166 Y12.411 E.02633
G1 X5.538 Y12.703 E.02633
G1 X4.897 Y12.964 E.02633
G1 X4.242 Y13.193 E.02636
G1 X3.646 Y13.37 E.02362
G1 X2.973 Y13.536 E.02636
G1 X2.292 Y13.667 E.02637
G1 X1.677 Y13.756 E.02362
G1 X.986 Y13.823 E.02636
G1 X.294 Y13.855 E.02632
G1 X-.398 Y13.853 E.02632
G1 X-1.09 Y13.815 E.02633
G1 X-1.779 Y13.744 E.02631
G1 X-2.464 Y13.637 E.02636
G1 X-3.073 Y13.513 E.02362
G1 X-3.745 Y13.343 E.02636
G1 X-4.407 Y13.139 E.02632
G1 X-5.058 Y12.902 E.02632
G1 X-5.697 Y12.633 E.02633
G1 X-6.322 Y12.332 E.02636
G1 X-6.868 Y12.037 E.02361
M73 P6 R5
G1 X-7.462 Y11.678 E.02636
G1 X-8.036 Y11.29 E.02632
G1 X-8.59 Y10.875 E.02633
G1 X-9.123 Y10.432 E.02633
G1 X-9.629 Y9.966 E.02616
G1 X-10.07 Y9.521 E.02383
G1 X-10.534 Y9.005 E.02636
G1 X-10.971 Y8.467 E.02636
G1 X-11.34 Y7.966 E.02362
G1 X-11.724 Y7.389 E.02636
G1 X-12.079 Y6.794 E.02632
G1 X-12.403 Y6.182 E.02633
G1 X-12.697 Y5.553 E.02636
G1 X-12.933 Y4.979 E.02362
G1 X-13.166 Y4.325 E.02636
G1 X-13.366 Y3.662 E.02632
G1 X-13.532 Y2.989 E.02636
G1 X-13.653 Y2.379 E.02362
G1 X-13.754 Y1.693 E.02636
G1 X-13.822 Y1.004 E.02632
G1 X-13.855 Y.312 E.02633
G1 X-13.853 Y-.382 E.02636
G1 X-13.822 Y-1.003 E.02362
G1 X-13.754 Y-1.693 E.02636
G1 X-13.653 Y-2.378 E.02632
G1 X-13.517 Y-3.057 E.02632
G1 X-13.347 Y-3.73 E.02638
G1 X-13.166 Y-4.324 E.02361
G1 X-12.934 Y-4.978 E.02636
G1 X-12.669 Y-5.618 E.02633
G1 X-12.372 Y-6.245 E.02637
G1 X-12.079 Y-6.793 E.02362
G1 X-11.724 Y-7.389 E.02636
G1 X-11.34 Y-7.965 E.02633
G1 X-10.928 Y-8.522 E.02633
G1 X-10.489 Y-9.057 E.02632
G1 X-10.023 Y-9.57 E.02632
G1 X-9.533 Y-10.059 E.02633
G1 X-9.018 Y-10.523 E.02632
G1 X-8.481 Y-10.96 E.02633
G1 X-7.923 Y-11.37 E.02633
G1 X-7.345 Y-11.752 E.02632
G1 X-6.748 Y-12.105 E.02636
G1 X-6.198 Y-12.395 E.02361
G1 X-5.57 Y-12.69 E.02637
G1 X-4.929 Y-12.952 E.02632
G1 X-4.275 Y-13.182 E.02636
G1 X-3.68 Y-13.361 E.02362
G1 X-3.007 Y-13.528 E.02636
G1 X-2.327 Y-13.662 E.02633
G1 X-1.641 Y-13.761 E.02632
G1 X-.952 Y-13.826 E.02633
G1 X-.259 Y-13.856 E.02636
G1 X.363 Y-13.854 E.02361
G1 X1.055 Y-13.818 E.02637
G1 X1.744 Y-13.748 E.02632
G1 X2.429 Y-13.644 E.02633
G1 X3.109 Y-13.505 E.02636
G1 X3.711 Y-13.352 E.02362
G1 X4.375 Y-13.15 E.02636
G1 X5.026 Y-12.915 E.02632
G1 X5.665 Y-12.648 E.02632
G1 X6.29 Y-12.349 E.02633
G1 X6.899 Y-12.019 E.02632
G1 X7.491 Y-11.659 E.02632
G1 X8.064 Y-11.27 E.02633
G1 X8.618 Y-10.853 E.02636
G1 X9.096 Y-10.456 E.02361
G1 X9.608 Y-9.987 E.02637
G1 X10.095 Y-9.495 E.02632
G1 X10.556 Y-8.978 E.02633
G1 X10.992 Y-8.44 E.02632
G1 X11.4 Y-7.88 E.02633
G1 X11.779 Y-7.301 E.02632
G1 X12.13 Y-6.702 E.02636
G1 X12.418 Y-6.151 E.02362
G1 X12.71 Y-5.523 E.02636
G1 X12.97 Y-4.881 E.02632
G1 X13.198 Y-4.225 E.02637
G1 X13.374 Y-3.63 E.02361
G1 X13.525 Y-3.014 E.02409
G1 X14.028 Y-3.062 F30000
;TYPE:Outer wall
G1 F2640
G1 X14.164 Y-2.357 E.02729
G1 X14.255 Y-1.719 E.02452
G1 X14.323 Y-1.004 E.02728
G1 X14.356 Y-.287 E.02727
G1 X14.352 Y.43 E.02727
G1 X14.313 Y1.147 E.02727
G1 X14.237 Y1.861 E.02728
G1 X14.126 Y2.57 E.0273
G1 X13.997 Y3.202 E.02452
G1 X13.819 Y3.898 E.02729
G1 X13.607 Y4.583 E.02727
G1 X13.361 Y5.258 E.02728
G1 X13.082 Y5.919 E.02727
G1 X12.769 Y6.565 E.0273
G1 X12.462 Y7.132 E.02452
G1 X12.09 Y7.746 E.02729
G1 X11.688 Y8.341 E.02727
G1 X11.259 Y8.91 E.02708
G1 X10.844 Y9.411 E.02473
G1 X10.36 Y9.941 E.02729
G1 X9.85 Y10.447 E.02727
G1 X9.316 Y10.926 E.02727
G1 X8.759 Y11.378 E.02728
G1 X8.179 Y11.801 E.02729
G1 X7.64 Y12.157 E.02452
G1 X7.023 Y12.523 E.02728
G1 X6.389 Y12.859 E.02728
G1 X5.738 Y13.162 E.02728
G1 X5.073 Y13.432 E.02728
G1 X4.396 Y13.669 E.02728
G1 X3.777 Y13.853 E.02452
G1 X3.08 Y14.024 E.02728
G1 X2.375 Y14.161 E.02729
G1 X1.736 Y14.253 E.02453
G1 X1.022 Y14.322 E.02729
G1 X.305 Y14.355 E.02727
G1 X-.413 Y14.352 E.02727
G1 X-1.129 Y14.314 E.02728
G1 X-1.843 Y14.24 E.02726
G1 X-2.553 Y14.13 E.02729
G1 X-3.185 Y14.001 E.02452
G1 X-3.881 Y13.824 E.02729
G1 X-4.566 Y13.613 E.02727
G1 X-5.241 Y13.368 E.02727
G1 X-5.902 Y13.089 E.02728
G1 X-6.549 Y12.778 E.02729
G1 X-7.117 Y12.471 E.02451
G1 X-7.731 Y12.099 E.02729
G1 X-8.326 Y11.698 E.02727
G1 X-8.9 Y11.267 E.02728
G1 X-9.452 Y10.809 E.02728
G1 X-9.977 Y10.326 E.02708
G1 X-10.434 Y9.864 E.02473
G1 X-10.914 Y9.33 E.02729
G1 X-11.367 Y8.773 E.02728
G1 X-11.75 Y8.253 E.02452
G1 X-12.147 Y7.655 E.02729
G1 X-12.515 Y7.039 E.02727
G1 X-12.851 Y6.405 E.02728
G1 X-13.155 Y5.754 E.02729
G1 X-13.4 Y5.158 E.02452
G1 X-13.641 Y4.481 E.02729
G1 X-13.848 Y3.794 E.02727
G1 X-14.02 Y3.097 E.02729
G1 X-14.145 Y2.464 E.02452
G1 X-14.251 Y1.754 E.02729
G1 X-14.321 Y1.04 E.02727
G1 X-14.355 Y.323 E.02728
G1 X-14.353 Y-.395 E.02729
G1 X-14.321 Y-1.04 E.02452
M73 P7 R5
G1 X-14.251 Y-1.754 E.02728
G1 X-14.145 Y-2.464 E.02727
G1 X-14.005 Y-3.167 E.02727
G1 X-13.829 Y-3.864 E.0273
G1 X-13.641 Y-4.481 E.02451
G1 X-13.4 Y-5.157 E.02729
G1 X-13.126 Y-5.82 E.02727
G1 X-12.818 Y-6.469 E.02729
G1 X-12.515 Y-7.039 E.02452
G1 X-12.147 Y-7.655 E.02729
G1 X-11.75 Y-8.253 E.02728
G1 X-11.323 Y-8.83 E.02728
G1 X-10.867 Y-9.384 E.02727
G1 X-10.385 Y-9.915 E.02727
G1 X-9.877 Y-10.422 E.02728
G1 X-9.344 Y-10.902 E.02727
G1 X-8.787 Y-11.356 E.02728
G1 X-8.209 Y-11.781 E.02728
G1 X-7.61 Y-12.176 E.02727
G1 X-6.992 Y-12.541 E.02729
G1 X-6.421 Y-12.843 E.02451
G1 X-5.771 Y-13.148 E.02729
G1 X-5.107 Y-13.419 E.02728
G1 X-4.43 Y-13.658 E.02728
G1 X-3.812 Y-13.843 E.02452
G1 X-3.115 Y-14.016 E.02729
G1 X-2.411 Y-14.155 E.02728
G1 X-1.701 Y-14.257 E.02727
G1 X-.986 Y-14.325 E.02728
G1 X-.269 Y-14.356 E.02729
G1 X.376 Y-14.353 E.02451
G1 X1.093 Y-14.317 E.02729
G1 X1.807 Y-14.244 E.02727
G1 X2.517 Y-14.136 E.02728
G1 X3.22 Y-13.993 E.02729
G1 X3.846 Y-13.834 E.02452
G1 X4.532 Y-13.624 E.02729
G1 X5.207 Y-13.381 E.02728
G1 X5.869 Y-13.104 E.02727
G1 X6.517 Y-12.794 E.02728
G1 X7.148 Y-12.453 E.02727
G1 X7.761 Y-12.08 E.02727
G1 X8.355 Y-11.677 E.02728
G1 X8.929 Y-11.245 E.02729
G1 X9.425 Y-10.832 E.02451
G1 X9.954 Y-10.348 E.0273
G1 X10.459 Y-9.837 E.02727
G1 X10.937 Y-9.302 E.02728
G1 X11.389 Y-8.744 E.02727
G1 X11.811 Y-8.164 E.02728
G1 X12.204 Y-7.564 E.02727
G1 X12.567 Y-6.945 E.02729
G1 X12.867 Y-6.373 E.02452
G1 X13.169 Y-5.722 E.02728
G1 X13.438 Y-5.057 E.02727
G1 X13.675 Y-4.378 E.0273
G1 X13.857 Y-3.76 E.02451
G1 X14.014 Y-3.121 E.02501
G1 E-.8 F2100
;WIPE_START
G1 F2625.363
G1 X14.164 Y-2.357
G1 X14.255 Y-1.719
G1 X14.31 Y-1.144
;WIPE_END
G1 X11.233 Y-7.877 F30000
G1 E.8 F2100
;TYPE:Bottom surface
;WIDTH:0.500975
G1 F2619.773
G1 X9.361 Y-9.748 E.10078
G1 F2640
G1 X8.87 Y-10.197 E.02535
G1 X8.405 Y-10.584 E.02304
G1 X7.865 Y-10.991 E.02578
G1 X7.306 Y-11.371 E.02573
G1 X6.758 Y-11.704 E.02441
G1 X11.695 Y-6.767 E.26591
G1 X12.111 Y-6 E.03324
G1 X12.368 Y-5.446 E.02327
G1 X5.446 Y-12.367 E.37283
G1 X4.902 Y-12.595 E.02248
G1 X4.384 Y-12.782 E.02096
G1 X12.779 Y-4.387 E.4522
G1 X13.065 Y-3.453 E.03717
G1 X3.455 Y-13.064 E.51764
G1 X2.614 Y-13.256 E.03283
G1 X13.256 Y-2.614 E.5732
G1 X13.387 Y-1.836 E.03008
